X: 214
T: the Countess of Loudoun & Moiras Strathspey
C: William Shepherd (17??-1812)
R: strathspey
Q: "Very Slow"
B: William Shepherd "2nd Collection" 1800 p.21 #5
F: http://imslp.org/wiki/File:PMLP73094-Shepherd_Collections_HMT.pdf
Z: 2012 John Chambers <jc:trillian.mit.edu>
M: C
L: 1/16
K: Bb
[|\
{Bc}d3BF3B G3BF3B | {Bc}d3BF2B2 G2c2c2d2 |\
{Bc}d3BF3B G3BF3B | (cB).c.d (ed).c.B A3BTc2d2 |
{Bc}d3BF3B G3BF3B | {Bc}d3BF2B2 G2c2Tc2d2 |\
{Bc}d3BF3B G3BF3B | (cd).e.g fcdB A3Bc3d ||
Tf3gf3d B3b (gf).e.d | Tf3gf3d Tc3de3g |\
Tf3gf3d b3f (ed).c.B | (cd).e.d (ed).c.B A3BTc3d |
Tf3gf3d B3b {g}f2.e.d | Tf3gf3d Tc3de2g |\
f3bd3f e3gd3B | Tc3d (ed).c.B A3BTc3d |]
